icons/moon-foggy-line.svg

<svg xmlns="http://www.w3.org/2000/svg" width="24" height="24" fill="none"><g clip-path="url(#a)"><g><path fill="#121212" d="M16 20.3341V18.1351C17.7144 17.2285 19.0124 15.6948 19.623 13.8541C18.3138 14.0941 16.9677 14.0408 15.6817 13.698C14.3956 13.3551 13.2016 12.7313 12.1857 11.8715C11.1697 11.0116 10.3571 9.93712 9.80643 8.72541C9.25574 7.5137 8.98066 6.19493 9.001 4.86411C8.01997 5.38296 7.16597 6.11258 6.50032 7.00057C5.83467 7.88857 5.37387 8.91293 5.151 10.0001H3.117C3.45163 7.9122 4.47293 5.99548 6.01932 4.55324C7.5657 3.111 9.54886 2.22559 11.655 2.03711C11.0034 3.42982 10.8284 4.99834 11.1572 6.50041C11.4859 8.00247 12.3001 9.3545 13.474 10.3476C14.6478 11.3408 16.116 11.9198 17.6518 11.9953C19.1876 12.0707 20.7055 11.6384 21.971 10.7651C22.1283 12.7888 21.6335 14.8097 20.559 16.5318C19.4845 18.254 17.8868 19.5868 16 20.3351V20.3341ZM7 20.0001H14V22.0001H7V20.0001ZM4 12.0001H10V14.0001H4V12.0001ZM2 16.0001H12V18.0001H2V16.0001Z"/></g></g><defs><clipPath id="a"><rect width="24" height="24" fill="white"/></clipPath></defs></svg>

<svg width="24" height="24" fill="none" xmlns="http://www.w3.org/2000/svg"><g clip-path="url(#a)"><path d="M16 20.334v-2.199a7.522 7.522 0 0 0 3.623-4.28 9 9 0 0 1-10.622-8.99A7.518 7.518 0 0 0 5.151 10H3.117a9.505 9.505 0 0 1 8.538-7.963 7 7 0 0 0 10.316 8.728A9.503 9.503 0 0 1 16 20.335ZM7 20h7v2H7v-2Zm-3-8h6v2H4v-2Zm-2 4h10v2H2v-2Z" /></g><defs><clipPath id="a"><path fill="#fff" d="M0 0h24v24H0z"/></clipPath></defs></svg>
